storage/app/icons/phosphoricons/bold/chat-centered-dots-bold.svg

<svg xmlns="http://www.w3.org/2000/svg" fill="currentColor" viewBox="0 0 256 256"><path d="M88 120a16 16 0 1 1 16 16 16 16 0 0 1-16-16m64 16a16 16 0 1 0-16-16 16 16 0 0 0 16 16m84-80v128a20 20 0 0 1-20 20h-58.11l-12.52 21.92a20 20 0 0 1-34.74 0L98.11 204H40a20 20 0 0 1-20-20V56a20 20 0 0 1 20-20h176a20 20 0 0 1 20 20m-24 4H44v120h61.07a12 12 0 0 1 10.42 6.05L128 207.94l12.51-21.89a12 12 0 0 1 10.42-6.05H212Z"/></svg>

<svg xmlns="http://www.w3.org/2000/svg" viewBox="0 0 256 256" fill="currentColor"><path d="M88,120a16,16,0,1,1,16,16A16,16,0,0,1,88,120Zm64,16a16,16,0,1,0-16-16A16,16,0,0,0,152,136Zm84-80V184a20,20,0,0,1-20,20H157.89l-12.52,21.92a20,20,0,0,1-34.74,0L98.11,204H40a20,20,0,0,1-20-20V56A20,20,0,0,1,40,36H216A20,20,0,0,1,236,56Zm-24,4H44V180h61.07a12,12,0,0,1,10.42,6.05L128,207.94l12.51-21.89A12,12,0,0,1,150.93,180H212Z"/></svg>
